src/_assets/icons/login-to-pa-icon.svg

<svg xmlns="http://www.w3.org/2000/svg" width="24" height="24" fill="none"><path fill="#243A57" d="M12.225 21v-1.5H19.5v-15h-7.275V3H19.5q.6 0 1.05.45T21 4.5v15q0 .6-.45 1.05T19.5 21zm-1.95-4.625L9.2 15.3l2.55-2.55H3v-1.5h8.7L9.15 8.7l1.075-1.075 4.4 4.4z"/></svg>

<svg width="24" height="24" viewBox="0 0 24 24" fill="none" xmlns="http://www.w3.org/2000/svg">
<path d="M12.225 21V19.5H19.5V4.5H12.225V3H19.5C19.9 3 20.25 3.15 20.55 3.45C20.85 3.75 21 4.1 21 4.5V19.5C21 19.9 20.85 20.25 20.55 20.55C20.25 20.85 19.9 21 19.5 21H12.225ZM10.275 16.375L9.2 15.3L11.75 12.75H3V11.25H11.7L9.15 8.7L10.225 7.625L14.625 12.025L10.275 16.375Z" fill="#243A57"/>
</svg>
